X: 1015
T: L\aangt j\"asspod p\aa bergom
S: efter Bengt Jonsson
S: Bruce Sagan's "scanfolk" session archive 2021-10-21
F: https://app.box.com/s/u6iiren0igvsukrhdducy7orq72jayq8/file/871778169405
F: BlueRoseMusic.org #1015
R: R\"attvikspolska
Z: 2021 John Chambers <jc:trillian.mit.edu>
M: 3/4
L: 1/16
K: D
|: A2A2 d4 e3(e | fe)fa g4 f3(g/f/ | e2)fe d2(ed) c2c2 | B2A^G A8 :|
|: A2Bc d4 F3(F | G2B2) A4 ~E4 | (E3F) G2BG [1,3 F2AF | G2G2 A8 :|2,4 F2F2 | E2DC D4 :|
